static/card-icons/update-arrows.svg

<svg viewBox="0 0 191.812 191.812" xmlns="http://www.w3.org/2000/svg"><g fill="#1d1d1b"><path d="m95.906 0c-52.883 0-95.906 43.023-95.906 95.906s43.023 95.906 95.906 95.906 95.906-43.023 95.906-95.906-43.023-95.906-95.906-95.906zm0 176.812c-44.612 0-80.906-36.294-80.906-80.906s36.294-80.906 80.906-80.906 80.906 36.294 80.906 80.906-36.294 80.906-80.906 80.906z"/><path d="m49.733 99.789 17.204-10.733c2.928-1.827 2.186-6.282-1.176-7.06l-6.611-1.531c5.92-14.888 20.465-25.205 37.179-25.205 16.422 0 30.998 9.842 37.132 25.073 1.547 3.842 5.917 5.701 9.759 4.155 3.842-1.547 5.703-5.917 4.155-9.759-8.433-20.939-28.47-34.47-51.046-34.47-23.767 0-44.345 15.177-51.914 36.792l-6.592-1.527c-3.362-.779-5.987 2.896-4.161 5.824l10.733 17.204c1.133 1.816 3.522 2.37 5.338 1.237z"/><path d="m158.188 113.465-10.404-17.405c-1.098-1.836-3.476-2.435-5.313-1.337l-17.405 10.404c-2.962 1.771-2.305 6.239 1.042 7.081l6.65 1.674c-6.611 13.846-20.795 22.953-36.816 22.662-15.772-.286-29.951-9.854-36.122-24.378-1.62-3.812-6.023-5.591-9.836-3.97-3.812 1.62-5.589 6.023-3.97 9.836 8.482 19.963 27.974 33.117 49.656 33.51.343.006.682.009 1.023.009 22.675 0 42.486-13.668 50.82-33.954l6.402 1.612c3.349.843 6.044-2.781 4.273-5.744z"/></g></svg>

<?xml version="1.0" encoding="iso-8859-1"?>
<!-- Generator: Adobe Illustrator 18.0.0, SVG Export Plug-In . SVG Version: 6.00 Build 0)  -->
<!DOCTYPE svg PUBLIC "-//W3C//DTD SVG 1.1//EN" "http://www.w3.org/Graphics/SVG/1.1/DTD/svg11.dtd">
<svg version="1.1" id="Capa_1" xmlns="http://www.w3.org/2000/svg" xmlns:xlink="http://www.w3.org/1999/xlink" x="0px" y="0px"
	 viewBox="0 0 191.812 191.812" style="enableBackground:new 0 0 191.812 191.812;" xml:space="preserve">
<g>
	<path style="fill:#1D1D1B;" d="M95.906,0C43.023,0,0,43.023,0,95.906s43.023,95.906,95.906,95.906s95.906-43.023,95.906-95.906
		S148.789,0,95.906,0z M95.906,176.812C51.294,176.812,15,140.518,15,95.906S51.294,15,95.906,15s80.906,36.294,80.906,80.906
		S140.518,176.812,95.906,176.812z"/>
	<path style="fill:#1D1D1B;" d="M49.733,99.789l17.204-10.733c2.928-1.827,2.186-6.282-1.176-7.06l-6.611-1.531
		C65.07,65.577,79.615,55.26,96.329,55.26c16.422,0,30.998,9.842,37.132,25.073c1.547,3.842,5.917,5.701,9.759,4.155
		c3.842-1.547,5.703-5.917,4.155-9.759c-8.433-20.939-28.47-34.47-51.046-34.47c-23.767,0-44.345,15.177-51.914,36.792l-6.592-1.527
		c-3.362-0.779-5.987,2.896-4.161,5.824l10.733,17.204C45.528,100.368,47.917,100.922,49.733,99.789z"/>
	<path style="fill:#1D1D1B;" d="M158.188,113.465L147.784,96.06c-1.098-1.836-3.476-2.435-5.313-1.337l-17.405,10.404
		c-2.962,1.771-2.305,6.239,1.042,7.081l6.65,1.674c-6.611,13.846-20.795,22.953-36.816,22.662
		c-15.772-0.286-29.951-9.854-36.122-24.378c-1.62-3.812-6.023-5.591-9.836-3.97c-3.812,1.62-5.589,6.023-3.97,9.836
		c8.482,19.963,27.974,33.117,49.656,33.51c0.343,0.006,0.682,0.009,1.023,0.009c22.675,0,42.486-13.668,50.82-33.954l6.402,1.612
		C157.264,120.052,159.959,116.428,158.188,113.465z"/>
</g>
<g>
</g>
<g>
</g>
<g>
</g>
<g>
</g>
<g>
</g>
<g>
</g>
<g>
</g>
<g>
</g>
<g>
</g>
<g>
</g>
<g>
</g>
<g>
</g>
<g>
</g>
<g>
</g>
<g>
</g>
</svg>
